X:1
T:Alleweil ein wenig lustig
T:Melodie aus Pater Valentin Rathgebers "Augsburger Tafelkonfekt" 1733 Bearbeitung von Eusebius Mandyczewski
T:Bruder Liederlich
T:Alleweil ein wenig lustig
T:CPDL - Creative Commons Attribution Non Commercial 3.0
T:CPDL - Creative Commons Attribution Non Commercial 3.0
C:Valentin Rathgeber
Z:CPDL - Creative Commons Attribution Non Commercial 3.0
%%score [ ( 1 2 ) ( 3 4 ) ]
L:1/8
Q:1/4=120
M:3/4
K:G
V:1 treble-8 nm="Frauen"
V:2 treble-8 
V:3 bass nm="Männer"
V:4 bass 
V:1
!f!"^Laut und übermütig" GA Bc de | (d2 g2) d2 | ed cB AG | (F2 A2) D2 | GF GA BG | .c2 .B2 .A2 | %6
w: 1.~Al- le- weil ein we- nig|lu- * stig,|al- le- weil ein we- nig|dur- * stig,|al- le- weil ein we- nig|Geld im Sack,|
w: 2.~Al- le- weil vom Wei- ne|schwan- * ken,|al- le- weil nach Hau- se|wan- * ken,|al- le- weil ein we- nig|brü- der- lich,|
w: 3.~Al- le- weil ein we- nig|Buß ge- tan,|all- weil wie- * der ge-|fan- gen an,|al- le- weil ein we- nig|n'Tod be- tracht,|
 GF GA BG | .c2 .B2 .A2 | !>!d2 D2 !>!c2 |!>(! !fermata!B6!>)! ||!f! GA Bc de | d2 g2 d2 | %12
w: al- le- weil ein we- nig|Schupf- ta- bak,|all- zeit so|so.|Ein _ gu- * tes _|Glas mit Wein|
w: al- le- weil ein we- nig|lie- der- lich,|all- zeit so|so.|Mein, _ was _ hilft _|Sorg und Müh,|
w: al- le- weil ein we- nig|wie- der g'lacht,|all- zeit so|so.|Es _ ist _ Zeit _|ü- ber Zeit;|
 ed cB AG | F2 A2 D2 |!mf! (G2 A2 B2 | c2 B2 A2) |"^(etwas breit)"!f! d2 cB AB | G6 | %18
w: kann _ ja _ g'wiss _|schlimm nicht sein,|bei Dia- na|auch zur Zeit|hab ich * mein *|Freud.|
w: die _ man _ hat _|spat und früh!|Tragst nicht die|g'ring- ste Gab|mit dir * ins *|Grab.|
w: mor- * gen _ g'wiss _|und nicht heut|will~*) ich, potz|Sap- per- ment,|ma- chen * ein *|End.|
"^a tempo"!f! (BB) ^c2 ^d2 | e2 f2 g2 |!p! (ee)"^rit." e2 e2 | d3 e !fermata!f2 |!mf! gd d4 | %23
w: Man _ re- de,|was man will;|hab _ ich doch|in der Still|al- le- weil,|
w: Alls ver- sof- fen|vor dem End|macht a rich- tigs|Tes- ta- ment.|Al- le- weil,|
w: A- * ber was|denk ich doch,|mor- * gen muss|ich doch noch|al- le- weil,|
 d^c"^cresc." de fd | g2 d2 d2 |!f! d^c de fd |!ff! gd d2!ff! f2 | !fermata!g6 |] %28
w: 1.~al- le- weil ein we- nig|Geld im Sack,|1.~al- le- weil ein we- nig|Schupf- ta- bak, so|so!|
w: 2.~al- le- weil ein we- nig|grad und krumm,|2.~al- le- weil ein we- nig|bös und frumm, so,|so!|
w: 3.~al- le- weil ein we- nig|trin- ken Wein,|3.~al- le- weil ein we- nig|trun- ken sein, so,|so!|
V:2
 GA Bc de | d4 d2 | ed cB AG | F2 A2 D2 | GF GA BG | A2 G2 F2 | GF GA BG | A2 G2 F2 | G2 D2 A2 | %9
w: |||||||||
w: |||||||||
w: |||||||||
 G6 || GA Bc de | d2 d2 d2 | ed cB AG | F2 A2 D2 | D2 F2 G2 | F2 G2 F2 | G2 G2 F2 | G6 | %18
w: |||||||||
w: |||||||||
w: |||||||||
 BB ^c2 ^d2 | e2 ^d2 e2 | cc c2 c2 | [Ac]3 [Ac] [Ac]2 | BB B4 | DD D4 | BB B4 | DD D4 | Bd d2 c2 | %27
w: |||||al- le- weil,|al- le- weil,|al- le- weil,|al- le- weil, so,|
w: |||||al- le- weil,|al- le- weil,|al- le- weil,|al- le- weil, so,|
w: |||||al- le- weil,|al- le- weil,|al- le- weil,|al- le- weil, so,|
 B6 |] %28
w: so!|
w: so!|
w: so!|
V:3
 z4 z2 | B,4 B,2 | z6 | (A,2 F,2) D,2 | z6 | F,2 G,2 D,2 | B,2 A,2 G,2 | F,2 G,2 D,2 | %8
w: ||||||||
w: ||||||||
w: ||||||||
 D,2 D,2 F,2 |!>(! D,6!>)! ||!f! G,F, G,A, B,C |!f! B,2 B,2 B,2 | CB, A,G, F,E, | D,2 F,2 D,2 | %14
w: ||||||
w: ||||||
w: ||||||
!mf!"^*) 3. Strophe nicht gebunden" B,,2 D,2 G,2 | A,2 G,2 D,2 |"^(etwas breit)"!f! B,,2 E,2 F,2 | %17
w: |||
w: |||
w: |||
 G,6 |"^a tempo"!f! (B,B,) B,2 B,2 |!f! B,2 B,2 B,2 | %20
w: |||
w: |||
w: |||
"^**)"!p! (A,"^**) Von hier bis zum Schluss 1. Bass hervortretend"B,) CB, A,G, | F,3 E, D,2 | %22
w: ||
w: ||
w: ||
!mf! G,F, G,A, B,G, | C2"^cresc." B,2 A,2 |!f! G,F, G,A, B,G, | C2 B,2 A,2 | %26
w: 1.~al- le- weil ein we- nig|Geld im Sack,|al- le- weil ein we- nig|1.~Schupf- ta- bak,|
w: 2.~al- le- weil ein we- nig|grad und krumm,|al- le- weil ein we- nig|2.~bös und frumm,|
w: 3.
~al- le- weil ein we- nig|trin- ken Wein,|al- le- weil ein we- nig|3.~trun- ken sein,|
!ff! D2 D,2!ff! [D,A,]2 | [D,G,]6 |] %28
w: all- zeit *||
w: all- zeit *||
w: all- zeit *||
V:4
 x6 | G,4 G,2 | x6 | (D,2 D,2) D,2 | x6 | .F,2 .G,2 .D,2 | x6 | .F,2 .G,2 .D,2 | %8
w: ||||||||
w: ||||||||
w: ||||||||
 !>!B,,2 D,2 !>!D,2 | !fermata!G,,6 || z6 | G,,2 B,,D, !>!G,2 | z6 | D,2 F,A, !>!D2 | z6 | z6 | %16
w: ||||||||
w: ||||||||
w: ||||||||
 B,,2 C,2 D,2 | G,,6 | B,B, ^A,2 =A,2 | !>!G,2 F,G, !>!E,2 | A,A, A,2 A,,2 | D,3 D, !fermata!D,2 | %22
w: ||||||
w: ||||||
w: ||||||
 G,,D, E,F, G,B, | A,2 G,2 D,2 | G,,D, E,F, G,B, | A,2 G,2 D,2 | B,,2 D,2 D,2 | !fermata!G,,6 |] %28
w: ||||* * so|so!|
w: ||||* * so,|so!|
w: ||||* * so,|so!|

